icons/measure-building-height-top-base-16-f.svg

<svg xmlns="http://www.w3.org/2000/svg" viewBox="0 0 16 16"><path d="M10 12V2H9l1.5-2L12 2h-1v10h1l-1.5 2L9 12zm6 3v1H0v-1h1V0h7v15zM4 12H3v1h1zm0-3H3v1h1zm0-3H3v1h1zm0-3H3v1h1zm2 9H5v1h1zm0-3H5v1h1zm0-3H5v1h1zm0-3H5v1h1z"/></svg>

<svg id="icons" xmlns="http://www.w3.org/2000/svg" viewBox="0 0 16 16"><title>measure-building-height-top-base-16-f</title><path d="M10,12V2H9l1.5-2L12,2H11V12h1l-1.5,2L9,12Zm6,3v1H0V15H1V0H8V15ZM4,12H3v1H4ZM4,9H3v1H4ZM4,6H3V7H4ZM4,3H3V4H4Zm2,9H5v1H6ZM6,9H5v1H6ZM6,6H5V7H6ZM6,3H5V4H6Z"/></svg>
